X: 413
U:~=!turn!
M:C|
L:1/8
K:Bb
E | {/E}TD2 B,D FDBF | DB,FE ECCE | TD2 B,D FDBF | ecdA BB,B, :| e | Td>efd gefd | ecdB ec-ce |


